Newaita-dark/.places-bluegray/64/folder-network.svg

<?xml version="1.0" encoding="UTF-8"?>
<svg xmlns="http://www.w3.org/2000/svg" xmlns:xlink="http://www.w3.org/1999/xlink" width="64px" height="64px" viewBox="0 0 64 64" version="1.1">
<defs>
<radialGradient id="radial0" gradientUnits="userSpaceOnUse" cx="450.908936" cy="189.579361" fx="450.908936" fy="189.579361" r="21.166656" gradientTransform="matrix(0.000000348341,-0.156265,-0.281277,-0.000000203077,90.038582,127.190659)">
<stop offset="0" style="stop-color:rgb(0%,0%,0%);stop-opacity:0.313726;"/>
<stop offset="0.222222" style="stop-color:rgb(0%,0%,0%);stop-opacity:0.27451;"/>
<stop offset="1" style="stop-color:rgb(0%,0%,0%);stop-opacity:0;"/>
</radialGradient>
<radialGradient id="radial1" gradientUnits="userSpaceOnUse" cx="450.908936" cy="189.579361" fx="450.908936" fy="189.579361" r="21.166656" gradientTransform="matrix(-0.000000348341,0.156265,0.281277,0.000000203077,-26.53252,-15.054964)">
<stop offset="0" style="stop-color:rgb(0%,0%,0%);stop-opacity:0.313726;"/>
<stop offset="0.222222" style="stop-color:rgb(0%,0%,0%);stop-opacity:0.27451;"/>
<stop offset="1" style="stop-color:rgb(0%,0%,0%);stop-opacity:0;"/>
</radialGradient>
<radialGradient id="radial2" gradientUnits="userSpaceOnUse" cx="450.908936" cy="189.579361" fx="450.908936" fy="189.579361" r="21.166656" gradientTransform="matrix(-0.000000348341,-0.156265,0.281277,-0.000000203077,-26.53252,127.190659)">
<stop offset="0" style="stop-color:rgb(0%,0%,0%);stop-opacity:0.313726;"/>
<stop offset="0.222222" style="stop-color:rgb(0%,0%,0%);stop-opacity:0.27451;"/>
<stop offset="1" style="stop-color:rgb(0%,0%,0%);stop-opacity:0;"/>
</radialGradient>
<radialGradient id="radial3" gradientUnits="userSpaceOnUse" cx="450.908936" cy="189.579361" fx="450.908936" fy="189.579361" r="21.166656" gradientTransform="matrix(0.000000348341,0.156265,-0.281277,0.000000203077,90.038578,-15.054965)">
<stop offset="0" style="stop-color:rgb(0%,0%,0%);stop-opacity:0.313726;"/>
<stop offset="0.222222" style="stop-color:rgb(0%,0%,0%);stop-opacity:0.27451;"/>
<stop offset="1" style="stop-color:rgb(0%,0%,0%);stop-opacity:0;"/>
</radialGradient>
<linearGradient id="linear0" gradientUnits="userSpaceOnUse" x1="255.323059" y1="233.5" x2="255.323044" y2="254.666656" gradientTransform="matrix(0.0267201,0,0,0.125012,23.93849,26.877567)">
<stop offset="0" style="stop-color:rgb(0%,0%,0%);stop-opacity:0.27451;"/>
<stop offset="1" style="stop-color:rgb(0%,0%,0%);stop-opacity:0;"/>
</linearGradient>
<linearGradient id="linear1" gradientUnits="userSpaceOnUse" x1="254" y1="-168.666672" x2="254" y2="233.5" >
<stop offset="0" style="stop-color:rgb(70.19608%,89.803922%,98.823529%);stop-opacity:1;"/>
<stop offset="1" style="stop-color:rgb(30.980393%,76.47059%,96.862745%);stop-opacity:1;"/>
</linearGradient>
<linearGradient id="linear2" gradientUnits="userSpaceOnUse" x1="296.333344" y1="233.5" x2="296.333344" y2="-168.666656" gradientTransform="matrix(0.125012,0,0,0.125012,0.0567854,26.877567)">
<stop offset="0" style="stop-color:rgb(29.803923%,68.627453%,31.37255%);stop-opacity:1;"/>
<stop offset="1" style="stop-color:rgb(40.000001%,73.333335%,41.568628%);stop-opacity:1;"/>
</linearGradient>
<linearGradient id="linear3" gradientUnits="userSpaceOnUse" x1="254" y1="233.5" x2="254" y2="138.25" >
<stop offset="0" style="stop-color:rgb(0%,0%,0%);stop-opacity:0.0784314;"/>
<stop offset="1" style="stop-color:rgb(100%,100%,100%);stop-opacity:0;"/>
</linearGradient>
<linearGradient id="linear4" gradientUnits="userSpaceOnUse" x1="254" y1="233.5" x2="254" y2="138.25" >
<stop offset="0" style="stop-color:rgb(0%,0%,0%);stop-opacity:0.0784314;"/>
<stop offset="1" style="stop-color:rgb(100%,100%,100%);stop-opacity:0;"/>
</linearGradient>
<linearGradient id="linear5" gradientUnits="userSpaceOnUse" x1="254" y1="233.5" x2="254" y2="138.25" >
<stop offset="0" style="stop-color:rgb(0%,0%,0%);stop-opacity:0.0784314;"/>
<stop offset="1" style="stop-color:rgb(100%,100%,100%);stop-opacity:0;"/>
</linearGradient>
</defs>
<g id="surface1">
<path style=" stroke:none;fill-rule:nonzero;fill:url(#radial0);" d="M 37.375 56.066406 L 42.667969 56.066406 L 42.667969 53.421875 L 37.375 53.421875 Z M 37.375 56.066406 "/>
<path style=" stroke:none;fill-rule:nonzero;fill:url(#radial1);" d="M 26.128906 56.066406 L 20.839844 56.066406 L 20.839844 58.714844 L 26.128906 58.714844 Z M 26.128906 56.066406 "/>
<path style=" stroke:none;fill-rule:nonzero;fill:url(#radial2);" d="M 26.128906 56.066406 L 20.839844 56.066406 L 20.839844 53.421875 L 26.128906 53.421875 Z M 26.128906 56.066406 "/>
<path style=" stroke:none;fill-rule:nonzero;fill:url(#radial3);" d="M 37.375 56.066406 L 42.667969 56.066406 L 42.667969 58.714844 L 37.375 58.714844 Z M 37.375 56.066406 "/>
<path style=" stroke:none;fill-rule:nonzero;fill:url(#linear0);" d="M 26.128906 55.40625 L 37.375 55.40625 L 37.375 58.53125 L 26.128906 58.53125 Z M 26.128906 55.40625 "/>
<path style="fill-rule:nonzero;fill:url(#linear1);stroke-width:3;stroke-linecap:round;stroke-linejoin:miter;stroke:rgb(20%,20%,20%);stroke-opacity:1;stroke-miterlimit:4;" d="M 254.006994 -168.660675 C 365.058889 -168.660675 455.081542 -78.638022 455.081542 32.413873 C 455.081542 143.465768 365.058889 233.488421 254.006994 233.488421 C 142.955098 233.488421 52.901198 143.465768 52.901198 32.413873 C 52.901198 -78.638022 142.955098 -168.660675 254.006994 -168.660675 Z M 254.006994 -168.660675 " transform="matrix(0.125012,0,0,0.125012,0,26.877566)"/>
<path style=" stroke:none;fill-rule:nonzero;fill:url(#linear2);" d="M 31.753906 7.113281 C 29.445312 7.347656 27.015625 7.652344 24.941406 8.699219 C 24.761719 9.8125 28.714844 11.269531 25.527344 12.261719 C 25.917969 14.015625 27.914062 15.609375 28.667969 12.984375 C 29.996094 11.75 32.898438 12.191406 33.464844 10.03125 C 34.675781 7.816406 33.679688 7.898438 31.753906 7.113281 Z M 24.882812 7.335938 C 23.660156 7.691406 20.75 8.394531 20.851562 9.3125 C 21.882812 9.132812 25.65625 8.667969 24.882812 7.335938 Z M 20.601562 9.925781 C 19.78125 10.21875 19.683594 11.550781 19.210938 10.09375 C 19.546875 11.421875 17.296875 12.636719 18.367188 13.441406 C 19.21875 12.289062 20.859375 10.441406 22.394531 12.351562 C 23.726562 13.675781 24.917969 11.847656 23.054688 11.328125 C 22.835938 10.125 20.957031 10.996094 20.601562 9.925781 Z M 19.210938 10.09375 C 19.199219 10.050781 19.1875 10.007812 19.171875 9.964844 C 19.183594 10.007812 19.199219 10.050781 19.210938 10.09375 Z M 43.964844 10.839844 C 41.566406 10.914062 40.695312 12.867188 39.195312 14.164062 C 38.976562 16.484375 40.929688 14.222656 41.839844 15.984375 C 42.878906 15.015625 41.898438 12.574219 43.921875 12.148438 C 43.859375 13.066406 42.855469 14.960938 44.707031 14.492188 C 43.652344 15.335938 41.773438 18.351562 40.671875 16.101562 C 39.851562 15.527344 40.5 17.886719 39.136719 17.378906 C 38.714844 18.917969 35.554688 18.683594 37.539062 20.21875 C 36.003906 20.320312 34.136719 22.492188 36.230469 23.578125 C 38.234375 23.886719 38.300781 20.484375 40.554688 20.726562 C 41.554688 21.386719 42.238281 22.109375 42.132812 22.921875 C 44.191406 22.601562 41 19.695312 43.140625 21.207031 C 43.363281 22.222656 44.652344 24.609375 44.640625 22.121094 C 46.050781 22.277344 46.527344 24.414062 48.265625 23.933594 C 48.980469 25.992188 45.476562 25.636719 44.261719 24.988281 C 42.390625 26.898438 41.664062 22.890625 39.269531 23.730469 C 36.523438 23.71875 34.5625 25.859375 32.902344 27.792969 C 32.175781 29.429688 31.742188 31.132812 31.945312 32.832031 C 32.566406 34.480469 34.929688 36.917969 36.273438 36.5 C 37.941406 35.789062 39.75 36.113281 41.738281 36.507812 C 42.582031 37.523438 41.277344 38.847656 42.65625 39.753906 C 42.628906 41.613281 43.546875 43.066406 42.484375 44.800781 C 42.4375 47.402344 44.585938 49.5 44.339844 52.136719 C 46.183594 51.359375 48.089844 50.144531 48.449219 48.160156 C 49.746094 47.359375 47.390625 45.972656 49.734375 45.320312 C 52.070312 43.871094 49.15625 40.332031 51.414062 38.457031 C 52.414062 37.246094 54.289062 34.433594 53.375 33.507812 C 50.570312 33.449219 55.6875 31.425781 55.679688 30.066406 C 56.035156 29.234375 54.933594 27.492188 54.375 28.964844 C 53.214844 28.894531 52.003906 25.371094 53.644531 27.136719 C 54.519531 26.828125 56.007812 28.480469 56.550781 28.222656 C 55.875 22.078125 52.878906 16.207031 48.210938 12.144531 C 47.859375 13.851562 45.835938 13.65625 46.074219 12.082031 C 48.5625 12.128906 46.421875 11.277344 45.265625 11.277344 C 44.824219 11.15625 44.394531 10.992188 43.964844 10.839844 Z M 16.613281 10.875 C 16.605469 10.886719 16.59375 10.894531 16.582031 10.902344 C 16.082031 11.640625 16.421875 12.574219 15.066406 12.324219 C 14.726562 12.550781 14.402344 12.800781 14.089844 13.066406 C 9.503906 17.617188 6.671875 23.929688 6.671875 30.929688 C 6.671875 30.972656 6.671875 31.015625 6.671875 31.058594 C 8.007812 33.066406 11.046875 32.546875 12.265625 34.671875 C 13.769531 35.332031 15.421875 35.597656 13.914062 37.589844 C 12.90625 39.367188 12.605469 41.4375 14.179688 43.03125 C 15.042969 44.816406 17.390625 46.109375 16.613281 48.375 C 17.234375 49.582031 17.683594 50.367188 17.703125 51.691406 C 17.90625 51.847656 18.128906 52.019531 18.359375 52.191406 C 18.914062 52.542969 19.480469 52.871094 20.058594 53.175781 C 20.875 53.453125 21.632812 53.3125 22.078125 52.167969 C 24.804688 51.71875 22.695312 47.882812 25.023438 47.292969 C 27.601562 46.445312 24.992188 43.125 27.636719 42.222656 C 29.359375 39.824219 25.515625 39.292969 24.019531 38.453125 C 22.628906 37.558594 22.097656 36.140625 20.464844 35.824219 C 20.425781 33.359375 17.316406 35.511719 16.765625 33.171875 C 15.539062 32.15625 14.503906 36.3125 12.945312 34.089844 C 12.40625 33.386719 13 31.378906 11.425781 32.089844 C 12.214844 30.5625 11.175781 28.945312 10.121094 30.828125 C 7.636719 31.121094 8.464844 26.886719 10.585938 26.804688 C 11.765625 26.035156 13.25 26.347656 14.054688 27.566406 C 13.28125 25.085938 16.714844 24.8125 16.582031 22.542969 C 17.757812 21.164062 20.902344 21.859375 21.371094 19.707031 C 20.582031 19.535156 18.003906 20.007812 19.957031 18.84375 C 21.378906 18.242188 25.273438 18.035156 22.417969 16.097656 C 22.984375 14.035156 20.585938 15.894531 20.859375 14.1875 C 18.792969 12.589844 19.261719 16.507812 17.710938 16.675781 C 16.863281 19.085938 16.960938 15.769531 15.296875 16.085938 C 12.929688 13.976562 20.078125 13.480469 17.753906 11.027344 C 17.398438 10.804688 17 10.910156 16.613281 10.875 Z M 35.53125 11.65625 C 34.496094 11.703125 32.292969 12.597656 34.457031 12.988281 C 35.074219 12.765625 36.773438 12.457031 35.53125 11.65625 Z M 21.589844 12.484375 C 19.527344 13.722656 24.398438 14.007812 21.851562 12.535156 Z M 36.882812 15.003906 C 37.738281 15.988281 36.273438 19.226562 38.335938 17.988281 C 39.347656 17.207031 37.550781 15.289062 36.882812 15.003906 Z M 36.5 16.316406 C 34.1875 17.222656 37.917969 18.621094 36.5 16.316406 Z M 23.140625 18.292969 C 22.765625 19.667969 24.417969 19.910156 23.628906 18.644531 L 23.359375 18.46875 Z M 48.417969 26.832031 C 49.925781 28.078125 50.214844 30.210938 51.433594 31.59375 C 51.316406 32.734375 52.292969 34.480469 50.527344 33.042969 C 50.605469 30.738281 47.765625 29.027344 48.136719 26.933594 Z M 48.417969 26.832031 "/>
<path style=" stroke:none;fill-rule:nonzero;fill:rgb(100%,100%,100%);fill-opacity:0.588235;" d="M 31.753906 5.792969 C 17.828125 5.792969 6.613281 17.003906 6.613281 30.929688 C 6.613281 31.011719 6.617188 31.09375 6.617188 31.175781 C 6.746094 17.363281 17.910156 6.285156 31.753906 6.285156 C 45.597656 6.285156 56.757812 17.363281 56.890625 31.175781 C 56.890625 31.09375 56.890625 31.011719 56.890625 30.929688 C 56.890625 17.003906 45.679688 5.792969 31.753906 5.792969 Z M 31.753906 5.792969 "/>
<path style=" stroke:none;fill-rule:nonzero;fill:rgb(12.941177%,12.941177%,12.941177%);fill-opacity:1;" d="M 31.753906 5.605469 C 17.726562 5.605469 6.425781 16.902344 6.425781 30.929688 C 6.425781 44.957031 17.726562 56.253906 31.753906 56.253906 C 45.78125 56.253906 57.078125 44.957031 57.078125 30.929688 C 57.078125 16.902344 45.78125 5.605469 31.753906 5.605469 Z M 31.753906 5.980469 C 45.578125 5.980469 56.703125 17.105469 56.703125 30.929688 C 56.703125 44.753906 45.578125 55.878906 31.753906 55.878906 C 17.925781 55.878906 6.800781 44.753906 6.800781 30.929688 C 6.800781 17.105469 17.925781 5.980469 31.753906 5.980469 Z M 31.753906 5.980469 "/>
<path style="fill-rule:nonzero;fill:rgb(69.01961%,74.509805%,77.254903%);fill-opacity:1;stroke-width:3;stroke-linecap:square;stroke-linejoin:bevel;stroke:rgb(12.941177%,12.941177%,12.941177%);stroke-opacity:1;stroke-miterlimit:4;" d="M 74.086675 159.401746 L 433.927312 159.401746 C 439.770504 159.401746 444.488803 164.151293 444.488803 169.994485 L 444.488803 201.741453 C 444.488803 207.584645 439.770504 212.334192 433.927312 212.334192 L 74.086675 212.334192 C 68.243483 212.334192 63.493937 207.584645 63.493937 201.741453 L 63.493937 169.994485 C 63.493937 164.151293 68.243483 159.401746 74.086675 159.401746 Z M 74.086675 159.401746 " transform="matrix(0.125012,0,0,0.125012,0,26.877566)"/>
<path style="fill-rule:nonzero;fill:url(#linear3);stroke-width:3;stroke-linecap:square;stroke-linejoin:bevel;stroke:rgb(12.941177%,12.941177%,12.941177%);stroke-opacity:1;stroke-miterlimit:4;" d="M 211.667287 138.247517 L 306.908192 138.247517 C 318.594576 138.247517 328.093669 147.715362 328.093669 159.401746 L 328.093669 212.334192 C 328.093669 224.020576 318.594576 233.488421 306.908192 233.488421 L 211.667287 233.488421 C 199.980903 233.488421 190.513057 224.020576 190.513057 212.334192 L 190.513057 159.401746 C 190.513057 147.715362 199.980903 138.247517 211.667287 138.247517 Z M 211.667287 138.247517 " transform="matrix(0.125012,0,0,0.125012,0,26.877566)"/>
<path style="fill-rule:nonzero;fill:url(#linear4);stroke-width:3;stroke-linecap:square;stroke-linejoin:bevel;stroke:rgb(12.941177%,12.941177%,12.941177%);stroke-opacity:1;stroke-miterlimit:4;" d="M 74.086675 159.401746 L 433.927312 159.401746 C 439.770504 159.401746 444.488803 164.151293 444.488803 169.994485 L 444.488803 201.741453 C 444.488803 207.584645 439.770504 212.334192 433.927312 212.334192 L 74.086675 212.334192 C 68.243483 212.334192 63.493937 207.584645 63.493937 201.741453 L 63.493937 169.994485 C 63.493937 164.151293 68.243483 159.401746 74.086675 159.401746 Z M 74.086675 159.401746 " transform="matrix(0.125012,0,0,0.125012,0,26.877566)"/>
<path style="fill-rule:nonzero;fill:rgb(69.01961%,74.509805%,77.254903%);fill-opacity:1;stroke-width:3;stroke-linecap:square;stroke-linejoin:bevel;stroke:rgb(12.941177%,12.941177%,12.941177%);stroke-opacity:1;stroke-miterlimit:4;" d="M 211.667287 138.247517 L 306.908192 138.247517 C 318.594576 138.247517 328.093669 147.715362 328.093669 159.401746 L 328.093669 212.334192 C 328.093669 224.020576 318.594576 233.488421 306.908192 233.488421 L 211.667287 233.488421 C 199.980903 233.488421 190.513057 224.020576 190.513057 212.334192 L 190.513057 159.401746 C 190.513057 147.715362 199.980903 138.247517 211.667287 138.247517 Z M 211.667287 138.247517 " transform="matrix(0.125012,0,0,0.125012,0,26.877566)"/>
<path style="fill-rule:nonzero;fill:url(#linear5);stroke-width:3;stroke-linecap:square;stroke-linejoin:bevel;stroke:rgb(12.941177%,12.941177%,12.941177%);stroke-opacity:1;stroke-miterlimit:4;" d="M 211.667287 138.247517 L 306.908192 138.247517 C 318.594576 138.247517 328.093669 147.715362 328.093669 159.401746 L 328.093669 212.334192 C 328.093669 224.020576 318.594576 233.488421 306.908192 233.488421 L 211.667287 233.488421 C 199.980903 233.488421 190.513057 224.020576 190.513057 212.334192 L 190.513057 159.401746 C 190.513057 147.715362 199.980903 138.247517 211.667287 138.247517 Z M 211.667287 138.247517 " transform="matrix(0.125012,0,0,0.125012,0,26.877566)"/>
</g>
</svg>

<svg xmlns="http://www.w3.org/2000/svg" width="64pt" height="64pt" viewBox="0 0 64 64"><defs><radialGradient id="a" gradientUnits="userSpaceOnUse" cx="450.909" cy="189.579" fx="450.909" fy="189.579" r="21.167" gradientTransform="matrix(0 -.15626 -.28128 0 90.039 127.19)"><stop offset="0" stop-opacity=".314"/><stop offset=".222" stop-opacity=".275"/><stop offset="1" stop-opacity="0"/></radialGradient><radialGradient id="b" gradientUnits="userSpaceOnUse" cx="450.909" cy="189.579" fx="450.909" fy="189.579" r="21.167" gradientTransform="matrix(0 .15626 .28128 0 -26.533 -15.055)"><stop offset="0" stop-opacity=".314"/><stop offset=".222" stop-opacity=".275"/><stop offset="1" stop-opacity="0"/></radialGradient><radialGradient id="c" gradientUnits="userSpaceOnUse" cx="450.909" cy="189.579" fx="450.909" fy="189.579" r="21.167" gradientTransform="matrix(0 -.15626 .28128 0 -26.533 127.19)"><stop offset="0" stop-opacity=".314"/><stop offset=".222" stop-opacity=".275"/><stop offset="1" stop-opacity="0"/></radialGradient><radialGradient id="d" gradientUnits="userSpaceOnUse" cx="450.909" cy="189.579" fx="450.909" fy="189.579" r="21.167" gradientTransform="matrix(0 .15626 -.28128 0 90.039 -15.055)"><stop offset="0" stop-opacity=".314"/><stop offset=".222" stop-opacity=".275"/><stop offset="1" stop-opacity="0"/></radialGradient><linearGradient id="e" gradientUnits="userSpaceOnUse" x1="255.323" y1="233.5" x2="255.323" y2="254.667" gradientTransform="matrix(.02672 0 0 .12501 23.938 26.878)"><stop offset="0" stop-opacity=".275"/><stop offset="1" stop-opacity="0"/></linearGradient><linearGradient id="f" gradientUnits="userSpaceOnUse" x1="254" y1="233.5" x2="254" y2="-168.667" gradientTransform="translate(0 26.878) scale(.12501)"><stop offset="0" stop-color="#585858" stop-opacity="0"/><stop offset="1" stop-color="#fafafa" stop-opacity=".196"/></linearGradient><linearGradient id="g" gradientUnits="userSpaceOnUse" x1="254" y1="233.5" x2="254" y2="138.25"><stop offset="0" stop-color="#c5cae9"/><stop offset="1" stop-color="#e8eaf6"/></linearGradient><linearGradient id="h" gradientUnits="userSpaceOnUse" x1="254" y1="233.5" x2="254" y2="138.25"><stop offset="0" stop-color="#c5cae9"/><stop offset="1" stop-color="#e8eaf6"/></linearGradient></defs><path d="M37.375 56.066h5.293v-2.644h-5.293zm0 0" fill="url(#a)"/><path d="M26.129 56.066h-5.29v2.649h5.29zm0 0" fill="url(#b)"/><path d="M26.129 56.066h-5.29v-2.644h5.29zm0 0" fill="url(#c)"/><path d="M37.375 56.066h5.293v2.649h-5.293zm0 0" fill="url(#d)"/><path d="M26.129 55.406h11.246v3.125H26.129zm0 0" fill="url(#e)"/><path d="M31.754 5.793c13.883 0 25.137 11.254 25.137 25.137 0 13.883-11.254 25.136-25.137 25.136-13.883 0-25.14-11.254-25.14-25.136 0-13.883 11.257-25.137 25.14-25.137zm0 0" fill="#78909c"/><path d="M31.762 7.113c-2.309.235-4.739.54-6.813 1.586-.18 1.114 3.774 2.57.586 3.563.39 1.754 2.387 3.347 3.14.722 1.333-1.234 4.235-.793 4.798-2.953 1.21-2.215.215-2.133-1.711-2.918zm-6.871.223c-1.223.355-4.133 1.059-4.028 1.977 1.028-.18 4.805-.645 4.028-1.977zm-4.282 2.59c-.82.293-.918 1.625-1.39.168.336 1.328-1.91 2.543-.844 3.347.855-1.152 2.496-3 4.027-1.09 1.336 1.325 2.528-.503.66-1.023-.218-1.203-2.097-.332-2.453-1.402zm-1.39.168c-.012-.043-.024-.086-.04-.13.012.044.028.087.04.13zm24.754.746c-2.399.074-3.27 2.027-4.766 3.324-.223 2.32 1.73.059 2.64 1.82 1.04-.968.06-3.41 2.083-3.836-.063.918-1.067 2.813.785 2.344-1.055.844-2.934 3.86-4.035 1.61-.82-.575-.172 1.785-1.535 1.277-.422 1.539-3.582 1.305-1.598 2.84-1.535.101-3.402 2.273-1.309 3.36 2.008.308 2.07-3.095 4.325-2.852 1 .66 1.683 1.382 1.578 2.195 2.058-.32-1.133-3.227 1.011-1.715.22 1.016 1.508 3.402 1.5.914 1.407.156 1.883 2.293 3.625 1.813.715 2.058-2.793 1.703-4.004 1.054-1.875 1.91-2.601-2.097-4.996-1.258-2.746-.011-4.703 2.13-6.363 4.063-.73 1.637-1.164 3.34-.96 5.04.62 1.647 2.984 4.085 4.327 3.667 1.668-.71 3.477-.387 5.465.008.844 1.015-.46 2.34.918 3.246-.027 1.86.89 3.312-.172 5.047-.047 2.601 2.102 4.699 1.86 7.336 1.84-.778 3.746-1.992 4.105-3.977 1.3-.8-1.055-2.187 1.285-2.84 2.336-1.449-.578-4.988 1.68-6.863 1.004-1.21 2.875-4.023 1.96-4.95-2.804-.058 2.313-2.081 2.306-3.44.355-.833-.747-2.575-1.305-1.102-1.16-.07-2.371-3.594-.73-1.828.874-.309 2.363 1.343 2.906 1.086-.676-6.145-3.672-12.016-8.34-16.078-.348 1.707-2.375 1.511-2.137-.063 2.488.047.348-.805-.809-.805-.44-.12-.87-.285-1.3-.437zm-27.364.035c-.527.746-.164 1.7-1.535 1.45-.582.39-1.113.84-1.61 1.327a24.786 24.786 0 0 0-1.804 2.133c-.683.945-1.305 1.95-1.902 2.934a25.078 25.078 0 0 0-3.145 12.21c0 .009.004.016.004.024 1.293 2.133 4.418 1.559 5.66 3.719 1.5.66 3.153.926 1.645 2.918-1.008 1.777-1.309 3.848.266 5.441.863 1.785 3.21 3.078 2.433 5.344.621 1.207 1.07 1.992 1.09 3.316.324.25.691.54 1.074.801.348.207.7.406 1.055.598.898.379 1.758.328 2.246-.922 2.727-.45.617-4.285 2.945-4.875 2.578-.848-.031-4.168 2.614-5.07 1.722-2.399-2.122-2.93-3.618-3.77-1.39-.894-1.922-2.312-3.554-2.629-.04-2.465-3.149-.312-3.7-2.652-1.226-1.016-2.261 3.14-3.82.918-.535-.703.055-2.711-1.52-2 .79-1.527-.25-3.145-1.304-1.262-2.484.293-1.656-3.941.465-4.023 1.18-.77 2.664-.457 3.469.761-.774-2.48 2.66-2.753 2.527-5.023 1.176-1.379 4.32-.684 4.789-2.836-.785-.172-3.367.3-1.414-.863 1.422-.602 5.316-.809 2.46-2.746.571-2.063-1.831-.203-1.558-1.91-2.062-1.598-1.594 2.32-3.148 2.488-.848 2.41-.75-.906-2.414-.59-2.367-2.11 4.781-2.606 2.457-5.059-.36-.226-.766-.117-1.153-.152zm18.93.781c-1.031.047-3.238.942-1.074 1.332.617-.222 2.316-.531 1.074-1.332zm-13.941.828c-2.063 1.239 2.808 1.524.261.051zm15.293 2.52c.855.984-.61 4.223 1.453 2.984 1.012-.781-.785-2.699-1.453-2.984zm-.383 1.312c-2.313.907 1.418 2.305 0 0zm-13.36 1.977c-.375 1.375 1.278 1.617.493.352l-.274-.176zm25.278 8.54c1.508 1.245 1.797 3.378 3.015 4.76-.117 1.141.86 2.887-.906 1.45.078-2.305-2.762-4.016-2.39-6.11zm0 0" fill="#546e7a" stroke-width=".37509412" stroke-linecap="round" stroke="#212121"/><path d="M31.754 5.793c13.883 0 25.137 11.254 25.137 25.137 0 13.883-11.254 25.136-25.137 25.136-13.883 0-25.14-11.254-25.14-25.136 0-13.883 11.257-25.137 25.14-25.137zm0 0" fill="url(#f)"/><path d="M31.754 5.793A25.085 25.085 0 0 0 6.614 30.93l.003.246c.13-13.813 11.293-24.89 25.137-24.89a25.082 25.082 0 0 1 25.137 24.89v-.246A25.082 25.082 0 0 0 31.754 5.793zm0 0" fill="#fff" fill-opacity=".588"/><path d="M31.754 5.605c-14.027 0-25.328 11.297-25.328 25.325 0 14.027 11.3 25.324 25.328 25.324A25.272 25.272 0 0 0 57.078 30.93 25.272 25.272 0 0 0 31.754 5.605zm0 .375a24.892 24.892 0 0 1 24.95 24.95 24.892 24.892 0 0 1-24.95 24.949A24.892 24.892 0 0 1 6.8 30.929 24.892 24.892 0 0 1 31.754 5.98zm0 0" fill="#212121"/><path d="M74.087 159.402h359.84c5.844 0 10.562 4.75 10.562 10.592v31.747c0 5.844-4.718 10.593-10.562 10.593H74.087c-5.844 0-10.593-4.75-10.593-10.593v-31.747c0-5.843 4.75-10.592 10.593-10.592zm0 0" transform="translate(0 26.878) scale(.12501)" fill="url(#g)" stroke-width="3" stroke-linecap="square" stroke-linejoin="bevel" stroke="#212121"/><path d="M211.667 138.248h95.241c11.687 0 21.186 9.467 21.186 21.154v52.932c0 11.687-9.5 21.154-21.186 21.154h-95.24c-11.687 0-21.155-9.467-21.155-21.154v-52.932c0-11.687 9.468-21.154 21.154-21.154zm0 0" transform="translate(0 26.878) scale(.12501)" fill="url(#h)" stroke-width="3" stroke-linecap="square" stroke-linejoin="bevel" stroke="#212121"/></svg>
